X: 2
T: Old Grey Cat
R: reel
M: 4/4
L: 1/8
K: Edor
e2e2 E3F|GFGA BABc|d2d2 D3E|ADFA dA (3Bcd|e2e2 E3F|GFGA BABc|dBcA BAFG|~E3D E4:||:Beed ~e3f|geaf gfed|Bddc d3e|fdaf gfed|eB~B2 gB~B2|aB~B2 bB~B2|gfed BA (3Bcd|egfd e4:|


Tune 3420	Setting 16465

